svg/music_note_off_outline.svg

<svg xmlns="http://www.w3.org/2000/svg" viewBox="0 0 24 24"><path d="M14 7h4V3h-6v4.61l2 2m-2 .83L4.41 2.86 3 4.27l9 9v.28a3.94 3.94 0 0 0-3.33-.32 4 4 0 0 0 1.98 7.72 4.1 4.1 0 0 0 3.35-4.1v-1.58L19.73 21l1.41-1.41M10 19a2 2 0 1 1 2-2 2 2 0 0 1-2 2"/></svg>

<?xml version="1.0" encoding="UTF-8"?><!DOCTYPE svg PUBLIC "-//W3C//DTD SVG 1.1//EN" "http://www.w3.org/Graphics/SVG/1.1/DTD/svg11.dtd"><svg xmlns="http://www.w3.org/2000/svg" xmlns:xlink="http://www.w3.org/1999/xlink" version="1.1" id="mdi-music-note-off-outline" width="24" height="24" viewBox="0 0 24 24"><path d="M14 7H18V3H12V7.61L14 9.61M12 10.44L4.41 2.86L3 4.27L12 13.27V13.55A3.94 3.94 0 0 0 8.67 13.23A4 4 0 0 0 10.65 20.95A4.1 4.1 0 0 0 14 16.85V15.27L19.73 21L21.14 19.59M10 19A2 2 0 1 1 12 17A2 2 0 0 1 10 19Z" /></svg>
